!!!!SEGMENT: pl-sa--83-a-ii-23--001-005_anonim--msza-agnus-dei.krn
!!!cenid: 17xx:1519
!!!COM: Anonim
!!!COM-rismid: pe30004985
!!!CDT:
!!!CNT:
!!!OPR: Msza
!!!OTL: Agnus Dei
!!!OMV: 005
!!!PDT:
!!!AGN: Sacred; Mass
!!!SMS-siglum: PL-SA
!!!SMS-shelfmark: 83/A II 23
!!!SMS-shelfwork: 001-005 M
!!!SMS-variant:
!!!SMS-altvar:
!!!NIFC-rismid: 1001035463
!!!URL-scan: http://bc.bdsandomierz.pl/dlibra/publication/1361/edition/1329/content
!!!ONB-nifc: UWAGA: części Mszy: 1. Kyrie, 2. Gloria, 3. Credo, 4. Sanctus, 5. Agnus Dei. Uwaga: część Sanctus zawiera Benedictus
!!!AIN: 2 alto 2 bass 1 cbass 2 soprn 1 tenor
!!!key: C
**kern	**kern	**text	**kern	**text	**kern	**text	**kern	**text	**kern	**text	**kern	**text	**kern	**text
*	*group1	*	*group1	*	*group1	*	*group1	*	*group1	*	*group1	*	*group1	*
*part8	*part7	*part7	*part6	*part6	*part5	*part5	*part4	*part4	*part3	*part3	*part2	*part2	*part1	*part1
*staff8	*staff7	*staff7	*staff6	*staff6	*staff5	*staff5	*staff4	*staff4	*staff3	*staff3	*staff2	*staff2	*staff1	*staff1
*I"Baſso	*I"BAſSO IIdo	*	*I"BAſSO Imo	*	*I"TENORE unisono	*	*I"ALTO IIdo	*	*I"ALTO Imo	*	*I"CANTO IIdo	*	*I"CANTO Imo	*
*I'cb	*I'B 2	*	*I'B 1	*	*I'T	*	*I'A 2	*	*I'A 1	*	*I'S 2	*	*I'S 1	*
*Icbass	*Ibass	*	*Ibass	*	*Itenor	*	*Ialto	*	*Ialto	*	*Isoprn	*	*Isoprn	*
*ICstr	*ICvox	*	*ICvox	*	*ICvox	*	*ICvox	*	*ICvox	*	*ICvox	*	*ICvox	*
*clefF4	*clefF4	*	*clefF4	*	*clefC4	*	*clefC3	*	*clefC3	*	*clefC1	*	*clefC1	*
*k[]	*k[]	*	*k[]	*	*k[]	*	*k[]	*	*k[]	*	*k[]	*	*k[]	*
*C:	*C:	*	*C:	*	*C:	*	*C:	*	*C:	*	*C:	*	*C:	*
*M3/4	*M3/4	*	*M3/4	*	*M3/4	*	*M3/4	*	*M3/4	*	*M3/4	*	*M3/4	*
=1	=1	=1	=1	=1	=1	=1	=1	=1	=1	=1	=1	=1	=1	=1
!	!	!	!	!	!	!	!	!	!	!	!	!	!LO:TX:t=P:problem=all2/right; inne nieregularnie	!
4r	4r	.	4r	.	4r	.	4r	.	4r	.	4r	.	4r	.
4C/	4C/	A-	4C/	A-	4e\	A-	4c/	A-	4c\	A-	4cc\	A-	4cc\	A-
4C/	4C/	-gnus	4C/	-gn(us)	4c\	-gnus	4c/	-gnus	8e\L	-gnus	4cc\	-gnus	4cc\	-gnus
.	.	.	.	.	.	.	.	.	16d\L	.	.	.	.	.
.	.	.	.	.	.	.	.	.	16c\JJ	.	.	.	.	.
=2	=2	=2	=2	=2	=2	=2	=2	=2	=2	=2	=2	=2	=2	=2
4G\	4G\	DE-	4G\	De-	4e\	DE-	4B/	DE-	4d\	DE-	4b\	De-	4b\	DE-
4G\	4G\	-I	4G\	-i	4B\	-I	4B/	-I	4G/	-I	4b\	-i	4b\	-I
4c\	4c\	qui	4c\	qui	4d\	qui	8e\L	qui	8g\L	qui	4b\	qui	4b\	qui
.	.	.	.	.	.	.	16d\L	.	16f\L	.	.	.	.	.
.	.	.	.	.	.	.	16c\JJ	.	16e\JJ	.	.	.	.	.
!	!	!	!LO:LB:g=original	!	!	!	!	!	!	!	!	!	!	!
=3	=3	=3	=3	=3	=3	=3	=3	=3	=3	=3	=3	=3	=3	=3
4d\	4d\	tol-	4d\	tol-	4d\	tol-	4d\	tol-	4f\	tol-	4a\	tol-	4a\	tol-
8d\L	8d\	-lis	8d\	-lis	8d\	-lis	8d\	-lis	8f\	-lis	8a\	-lis	8a\	-lis
8c\	8c\	pec-	8c\	pec-	8d\	pec-	8c\	pec-	8e\	pec-	8a\	pec-	8a\	pec-
8B\	8B\	-ca-	8B\	-ca-	8d\	-ca-	8d\	-ca-	8f\	-ca-	8b\	-ca-	8b\	-ca-
8G\J	8G\	-ta	8G\	-ta	8d\	-ta	8B\	-ta	8d\	-ta	8b\	-ta	8b\	-ta
=4	=4	=4	=4	=4	=4	=4	=4	=4	=4	=4	=4	=4	=4	=4
4c\	4c\	mun-	4c\	mun-	4e\	mun-	4c/	mun-	4e\	mun-	4cc\	mun-	4cc\	mun-
4C/	4C/	-di	4C/	-di	4c\	-di	4c/	-di	4c\	-di	4cc\	-di	4cc\	-di
4r	4r	.	4r	.	4r	.	4r	.	4r	.	4r	.	4r	.
!LO:LB:g=original	!	!	!	!	!	!	!	!	!	!	!	!	!	!
=5	=5	=5	=5	=5	=5	=5	=5	=5	=5	=5	=5	=5	=5	=5
*	*	*	*	*	*2\right	*	*	*	*2\right	*	*2\right	*	*2\right	*
4C/	2C/	A-	2C/	A-	2e\	A-	2c/	A-	2c\	A-	2cc\	A-	2cc\	A-
4C/	.	.	.	.	.	.	.	.	.	.	.	.	.	.
4C/	4C/	-gnus	4C/	-gnus	4c\	-gnus	4c/	-gn(us)	8e\L	-gnus	4cc\	-gnus	4cc\	-gnus
.	.	.	.	.	.	.	.	.	16d\L	.	.	.	.	.
.	.	.	.	.	.	.	.	.	16c\JJ	.	.	.	.	.
!	!	!	!	!	!	!	!	!	!LO:LB:g=original	!	!	!	!	!
=6	=6	=6	=6	=6	=6	=6	=6	=6	=6	=6	=6	=6	=6	=6
4G\	4G\	DE-	4G\	De-	4d\	DE-	4d\	DE-	4d\	DE-	4b\	De-	4dd\	De-
4G\	4G\	-I	4G\	-i	4B\	-I	4d\	-I	4G/	-I	4b\	-i	4dd\	-i
!	!	!	!	!	!	!	!LO:LB:g=original	!	!	!	!	!	!	!
4C/	4C/	qui	4C/	qui	4B\	qui	8e\L	qui	8g\L	qui	4cc\	qui	4cc\	qui
.	.	.	.	.	.	.	16d\L	.	16f\L	.	.	.	.	.
.	.	.	.	.	.	.	16c\JJ	.	16e\JJ	.	.	.	.	.
!	!LO:LB:g=original	!	!	!	!LO:LB:g=original	!	!	!	!	!	!	!	!LO:LB:g=original	!
=7	=7	=7	=7	=7	=7	=7	=7	=7	=7	=7	=7	=7	=7	=7
4D/	4D/	tol-	4D/	tol-	4d\	tol-	4d\	tol-	4f\	tol-	4a\	tol-	4a\	tol-
!	!	!	!	!	!	!	!	!	!	!	!LO:LB:g=original	!	!	!
8D/L	8D/	-lis	8D/	-lis	8d\	-lis	8d\	-lis	8f\	-lis	8a\	-lis	8a\	-lis
8C/	8C/	pec-	8C/	pec-	8d\	pec-	8c\	pec-	8e\	pec-	8a\	pec-	8a\	pec-
8BB/	8BB/	-ca-	8BB/	-ca-	8d\	-ca-	8d\	-ca-	8f\	-ca-	8b\	-ca-	8b\	-ca-
8GG/J	8GG/	-ta	8GG/	-ta	8d\	-ta	8B/	-ta	8d\	-ta	8b\	-ta	8b\	-ta
=8	=8	=8	=8	=8	=8	=8	=8	=8	=8	=8	=8	=8	=8	=8
4C/	4C/	mun-	4C/	mun-	4c\	mun-	4c/	mun-	4e\	mun-	4cc\	mun-	4cc\	mun-
4C/	4C/	-di	4C/	-di	4c\	-di	4c/	-di	4c\	-di	4cc\	-di	4cc\	-di
8G\L	8G\	mi-	8G\	mi-	8d\	mi-	8g\	mi-	8g\	mi-	8b\	mi-	8dd\	mi-
8G\J	8G\	-ſe-	8G\	-ſe-	8d\	-ſe-	8g\	-ſe-	8g\	-se-	8b\	-ſe-	8dd\	-se-
=9	=9	=9	=9	=9	=9	=9	=9	=9	=9	=9	=9	=9	=9	=9
4c\	4c\	-re-	4c\	-re-	4e\	-re-	4g\	-re-	4g\	-re-	8cc\L	-re-	8ee\L	-re-
.	.	.	.	.	.	.	.	.	.	.	8b\	.	8dd\	.
4r	4r	.	4r	.	4r	.	4r	.	4r	.	8cc\	.	8ee\	.
.	.	.	.	.	.	.	.	.	.	.	8b\	.	8dd\	.
4c\	4c\	-re	4c\	-re	4e\	-re	4g\	-re	4g\	-re	8cc\	.	8ee\	.
.	.	.	.	.	.	.	.	.	.	.	8dd\J	.	8b\J	.
=10	=10	=10	=10	=10	=10	=10	=10	=10	=10	=10	=10	=10	=10	=10
4c\	4c\	mi-	4c\	mi-	4c\	mi-	4g\	mi-	4g\	mi-	8ee\L	.	8cc\L	.
.	.	.	.	.	.	.	.	.	.	.	8dd\	.	8b\	.
4r	4r	.	4r	.	4r	.	4r	.	4r	.	8ee\	.	8cc\	.
.	.	.	.	.	.	.	.	.	.	.	8dd\	.	8b\	.
4c\	4c\	-ſe-	4c\	-ſe-	4c\	-ſe-	4g\	-ſe-	4g\	-se-	8ee\	.	8cc\	.
.	.	.	.	.	.	.	.	.	.	.	8b\J	.	8dd\J	.
=11	=11	=11	=11	=11	=11	=11	=11	=11	=11	=11	=11	=11	=11	=11
4c\	4c\	-re-	4c\	-re-	4e\	-re-	4g\	-re-	4g\	-re-	8cc\L	.	8ee\L	.
.	.	.	.	.	.	.	.	.	.	.	8b\	.	8dd\	.
4r	4r	.	4r	.	4r	.	4r	.	4r	.	8cc\	.	8ee\	.
.	.	.	.	.	.	.	.	.	.	.	8b\	.	8dd\	.
!	!	!	!	!	!	!	!	!	!LO:N:vis=4	!	!	!	!	!
4c\	4c\	-re	4c\	-re	4e\	-re	4g\	-re	8g\	-re	8cc\	.	8ee\	.
!	!	!	!	!	!	!	!	!	!LO:N:vis=4	!	!	!	!	!
.	.	.	.	.	.	.	.	.	8r	.	8dd\J	.	8b\J	.
!	!	!	!LO:LB:g=original	!	!	!	!	!	!	!	!	!	!	!
=12	=12	=12	=12	=12	=12	=12	=12	=12	=12	=12	=12	=12	=12	=12
4c\	4c\	mi-	4c\	mi-	4c\	mi-	4g\	mi-	4g\	mi-	8ee\L	.	8cc\L	.
.	.	.	.	.	.	.	.	.	.	.	8dd\	.	8b\	.
4r	4r	.	4r	.	4r	.	4r	.	4r	.	8ee\	.	8cc\	.
.	.	.	.	.	.	.	.	.	.	.	8dd\	.	8b\	.
!	!	!	!	!	!	!	!	!	!LO:N:vis=4	!	!	!	!	!
4c\	4c\	-ſe-	4c\	-ſe-	4c\	-ſe-	4g\	-ſe-	8g\	-se-	8ee\	.	8cc\	.
!	!	!	!	!	!	!	!	!	!LO:N:vis=4	!	!	!	!	!
.	.	.	.	.	.	.	.	.	8r	.	8b\J	.	8dd\J	.
!LO:LB:g=original	!	!	!	!	!	!	!LO:LB:g=original	!	!LO:LB:g=original	!	!	!	!	!
=13	=13	=13	=13	=13	=13	=13	=13	=13	=13	=13	=13	=13	=13	=13
8c\L	8c\	-re-	8c\	-re-	8c\	-re-	8g\	-re-	8g\	-re-	8cc\	.	8ee\	.
8F\J	8F\	-re	8F\	-re	8d\	-re	16f\LL	-re	8a\	-re	8dd\	-re	8ff\	-re
.	.	.	.	.	.	.	16e\JJ	.	.	.	.	.	.	.
!	!	!	!	!	!	!	!	!	!	!	!	!	!LO:LB:g=original	!
4G\	4G\	no-	4G\	no-	4d\	no-	4f\	no-	2g\	no-	2b\	no-	2dd\	no-
4GG/	4GG/	.	4GG/	.	4B\	.	8g\L	.	.	.	.	.	.	.
.	.	.	.	.	.	.	8f\J	.	.	.	.	.	.	.
!	!LO:PB:g=original	!	!	!	!LO:LB:g=original	!	!	!	!	!	!LO:LB:g=original	!	!	!
=14	=14	=14	=14	=14	=14	=14	=14	=14	=14	=14	=14	=14	=14	=14
!	!	!	!	!	!	!	!	!	!	!	!	!	!LO:N:vis=2	!
4C/	4C/	-bis	4C/	-bis	4c\	-bis	4e\	-bis	4g\	-bis	4cc\	-bis	4cc\	-bis
4r	4r	.	4r	.	4r	.	4r	.	4r	.	4r	.	4r	.
4C/	8C/	mi-	8C/	mi-	8c\	mi-	8e\	mi-	8g\	mi-	8cc\	mi-	8cc\	mi-
.	8C/	-ſe-	8C/	-ſe-	8c\	-ſe-	8e\	-ſe-	8g\	-ſe-	8cc\	-se-	8cc\	-ſe-
=15	=15	=15	=15	=15	=15	=15	=15	=15	=15	=15	=15	=15	=15	=15
4F\	4F\	-re-	4F\	-re-	4c\	-re-	8f\L	-re-	8a\L	-re-	4cc\	-re-	4cc\	-re-
.	.	.	.	.	.	.	8e\	.	8g\	.	.	.	.	.
4r	4r	.	4r	.	4r	.	8f\	.	8a\	.	4r	.	4r	.
.	.	.	.	.	.	.	8e\	.	8g\	.	.	.	.	.
4F\	4F\	-re	4F\	-re	4c\	-re	8f\	.	8a\	.	4cc\	-re	4cc\	-re
.	.	.	.	.	.	.	8g\J	.	8e\J	.	.	.	.	.
=16	=16	=16	=16	=16	=16	=16	=16	=16	=16	=16	=16	=16	=16	=16
4c\	4F\	mi-	4c\	mi-	4c\	mi-	8a\L	.	8f\L	.	4cc\	mi-	4cc\	mi-
.	.	.	.	.	.	.	8g\	.	8e\	.	.	.	.	.
4r	4r	.	4r	.	4r	.	8a\	.	8f\	.	4r	.	4r	.
.	.	.	.	.	.	.	8g\	.	8e\	.	.	.	.	.
!	!	!	!	!	!	!	!	!	!	!	!	!	!LO:SIC:v:s=4cc\	!
4c\	4F\	-ſe-	4c\	-ſe-	4c\	-ſe-	8a\	.	8f\	.	4cc\	-se-	4b\	-ſe-
.	.	.	.	.	.	.	8e\J	.	8g\J	.	.	.	.	.
=17	=17	=17	=17	=17	=17	=17	=17	=17	=17	=17	=17	=17	=17	=17
4F\	4F\	-re-	4F\	-re-	4c\	-re-	8f\L	.	8a\L	.	4cc\	-re-	4cc\	-r-
.	.	.	.	.	.	.	8e\	.	8g\	.	.	.	.	.
4r	4r	.	4r	.	4r	.	8f\	.	8a\	.	4r	.	4r	.
.	.	.	.	.	.	.	8e\	.	8g\	.	.	.	.	.
4F\	4F\	-re	4F\	-re	4c\	-re	8f\	.	8a\	.	4cc\	-re	4cc\	-ere
.	.	.	.	.	.	.	8g\J	.	8e\J	.	.	.	.	.
=18	=18	=18	=18	=18	=18	=18	=18	=18	=18	=18	=18	=18	=18	=18
*	*	*	*	*ij	*	*	*	*	*	*	*	*	*	*
4c\	4F\	mi-	4c\	mi-	4c\	mi-	8a\L	.	8f\L	.	4cc\	mi-	4cc\	mi-
.	.	.	.	.	.	.	8g\	.	8e\	.	.	.	.	.
4r	4r	.	4r	.	4r	.	8a\	.	8f\	.	4r	.	4r	.
.	.	.	.	.	.	.	8g\	.	8e\	.	.	.	.	.
4c\	4F\	-ſe-	4c\	-ſe-	4c\	-ſe-	8a\	.	8f\	.	4cc\	-se-	4cc\	-ſe-
.	.	.	.	.	.	.	8e\J	.	8g\J	.	.	.	.	.
!	!	!	!	!	!	!	!LO:LB:g=original	!	!	!	!	!	!	!
=19	=19	=19	=19	=19	=19	=19	=19	=19	=19	=19	=19	=19	=19	=19
4F\	4F\	-re-	4F\	-re-	4c\	-re-	4f\	.	4a\	.	4cc\	-re-	4cc\	-re-
4F\	4F\	-re	4F\	-re	4c\	-re	4f\	-re	4a\	re	4cc\	-re	4cc\	-re
*	*	*	*	*Xij	*	*	*	*	*	*	*	*	*	*
8B\L	8B\	mi-	8B\	mi-	8d\	mi-	8g\	mi-	8g\	mi-	8b\	mi-	8dd\	mi-
!	!	!	!	!	!	!	!	!	!LO:LB:g=original	!	!	!	!	!
8G\J	8G\	-ſe-	8G\	-ſe-	8B\	-ſe-	8d\	-ſe-	8g\	-se-	8b\	-ſe-	8dd\	-se-
=20	=20	=20	=20	=20	=20	=20	=20	=20	=20	=20	=20	=20	=20	=20
*	*	*	*	*	*	*	*2\right	*	*	*	*	*	*	*
4c\	4c\	-re-	4c\	-re-	4.c\	-re-	2e\	-re-	2g\	-re-	4.cc\	-re-	4.ee\	-re-
8C/L	8C/L	.	8C/L	.	.	.	.	.	.	.	.	.	.	.
8D/J	8D/J	.	8D/J	.	8d\	.	.	.	.	.	8b\	-re	8dd\	.
4E\	4E\	-re	4E\	-re	4e\	-re	4e\	-re	4g\	-re	4cc\	no-	4ee\	-re
!LO:LB:g=original	!	!	!	!	!	!	!	!	!	!	!	!	!LO:LB:g=original	!
=21	=21	=21	=21	=21	=21	=21	=21	=21	=21	=21	=21	=21	=21	=21
8F\L	8F\L	no-	8F\L	no-	8d\L	no-	4f\	no-	4a\	no-	8dd\L	.	8ff\L	no-
8A\J	8A\J	.	8A\J	.	8e\J	.	.	.	.	.	8cc\J	.	8ee\J	.
!	!LO:LB:g=original	!	!	!	!	!	!	!	!	!	!	!	!	!
4G\	4G\	.	4G\	.	4c\	.	2d\	.	2g\	.	2b\	.	2dd\	.
4GG/	4GG/	.	4GG/	.	4B\	.	.	.	.	.	.	.	.	.
!	!	!	!	!	!LO:LB:g=original	!	!	!	!	!	!LO:LB:g=original	!	!	!
=22	=22	=22	=22	=22	=22	=22	=22	=22	=22	=22	=22	=22	=22	=22
4C/	4C/	-bis	4C/	-bis	4c\	bis	4e\	-bis	4g\	-bis	4cc\	-bis	4cc\	-bis
4C/	4C/	Do-	4C/	Do-	4d\	Do-	4e\	Do-	4g\	Do-	4cc\	Do-	4ee\	Do-
4C/	4C/	-na	4C/	-na	4c\	-na	4e\	-na	4g\	-na	4cc\	-na	4ee\	-na
!	!	!	!LO:LB:g=original	!	!	!	!	!	!	!	!	!	!	!
=23	=23	=23	=23	=23	=23	=23	=23	=23	=23	=23	=23	=23	=23	=23
4F\	(4F\	no-	4F\	no-	(4f\	no-	2f\	no-	4a\	no-	(4cc\	no-	2ff\	no-
4C/	4C\)	.	4C\	.	4c\)	.	.	.	4g\	.	4b\)	.	.	.
!	!	!	!LO:SIC:v:s=4F\	!	!	!	!	!	!	!	!	!	!	!
4F\	4F\	-bis	4G\	-bis	4f\	.	4f\	-bis	4a\	-bis	4cc\	-bis	4ff\	-bis
=24	=24	=24	=24	=24	=24	=24	=24	=24	=24	=24	=24	=24	=24	=24
!	!	!	!	!	!	!	!	!	!LO:N:vis=2	!	!	!	!	!
4c\	(4E\	pa-	4c\	pa-	4c\	-bis	4e\	pa-	4g\	pa-	(4cc\	pa-	4ee\	pa-
*	*2\right	*	*	*	*	*	*	*	*	*	*	*	*	*
!	!	!	!	!	!	!	!	!	!LO:N:vis=1	!	!	!	!	!
4G\	2D\)	.	4G\	.	(4d\	pa-	2d\	.	2g\	.	4b\)	.	2dd\	.
4GG/	.	.	4GG/	.	4B\)	.	.	.	.	.	4dd\	.	.	.
=25	=25	=25	=25	=25	=25	=25	=25	=25	=25	=25	=25	=25	=25	=25
2.C/	2.C/	-cem	2.C/	-cem	2.c\	-cem	2.e\	-cem	2.g\	-cem	4ee\	-cem	2.cc\	-cem
.	.	.	.	.	.	.	.	.	.	.	4r	.	.	.
.	.	.	.	.	.	.	.	.	.	.	4r	.	.	.
==	==	==	==	==	==	==	==	==	==	==	==	==	==	==
*-	*-	*-	*-	*-	*-	*-	*-	*-	*-	*-	*-	*-	*-	*-
!!!system-decoration: [(g1)]<s8>
!!!ENC: Krzysztof Stępień
!!!END: 2021-02-02
!!!ENC: Andrzej Kubiczek
!!!END: 2022-03-28
